X:1
T:Malìa
T:Malìa
T:The Spell
T:Francesco Paolo Tosti
C:Francesco Paolo Tosti
%%score 1 { ( 2 3 ) | ( 4 5 ) }
L:1/8
Q:1/4=138
M:3/4
K:F
V:1 treble nm="Baritono" snm="Bar."
V:2 treble nm="Piano" snm="Pf."
V:3 treble 
V:4 bass 
V:5 bass 
V:1
 z6 | z6 | z6 | z6 | z6 | z6 | z6 | z6 | z6 | z2 !tenuto!F2 !tenuto!F2 | %10
w: |||||||||Co- sa|
 !tenuto!G2 !tenuto!G2 !tenuto!G2 | !tenuto!G2 !tenuto!F2 !tenuto!G2 | !tenuto!A4 !tenuto!A2 | %13
w: c'e- ra ne'l|fior che m'hai|da- to?|
 z2 !tenuto!A2 !tenuto!A2 | !tenuto!B2 !tenuto!B2 !tenuto!B2 | !tenuto!B2 !tenuto!A2 !tenuto!B2 | %16
w: For- se~un|fil- tro,un ar-|ca- no po-|
 !tenuto!c6 | z2 !tenuto!c2 !tenuto!c2 | !tenuto!^c2 !tenuto!c2 !tenuto!c2 | %19
w: ter!|Ne'l toc-|car- lo'l mio|
 !tenuto!^c2 !tenuto!^B2 !tenuto!c2 | !tenuto!e4 !tenuto!d2 | z2 !tenuto!=c2 !tenuto!B2 | %22
w: co- re~ha tre-|ma- to|m'ha l'o-|
 !tenuto!A2 !tenuto!c2 !tenuto!A2 | !tenuto!A2 !tenuto!G2 !tenuto!A2 | !tenuto!F4 z2 | %25
w: lez- zo tur-|ba- to'l pen-|sier!|
 z2 !tenuto!A2 !tenuto!A2 | !tenuto!A2 !tenuto!=B2 !tenuto!c2 | !tenuto!d2 !tenuto!c2 !tenuto!=B2 | %28
w: Ne le|va- ghe mo-|ven- ze che|
 !tenuto!c4 !tenuto!c2 | z2 !tenuto!c2 !tenuto!c2 | !tenuto!c2 !tenuto!d2 !tenuto!e2 | %31
w: ci~ha i?|un in-|can- to- vien|
 !tenuto!f2 !tenuto!e2 !tenuto!d2 | !tenuto!e6 | z2 !tenuto!e2 !tenuto!e2 | %34
w: for- se con|te?|Fre- me|
 !tenuto!.f2 !tenuto!.e2 !tenuto!d2 | !tenuto!.f2 !tenuto!.e2 !tenuto!.d2 | f4 !tenuto!d2 | %37
w: l'a- ria per|do- ve tu|va- i,|
 z2 !tenuto!d2 !tenuto!d2 | !tenuto!e2 !tenuto!d2 !tenuto!c2 | !tenuto!e2 !tenuto!d2 !tenuto!c2 | %40
w: spun- ta~un|fio- re~o- ve|pas- sa'l tuo|
 !tenuto!c6 | z2 !tenuto!c2 !tenuto!c2 | !tenuto!d2 !tenuto!c2 !tenuto!B2 | %43
w: piè!|Fre- me|l'a- ria per|
 !tenuto!d2 !tenuto!c2 !tenuto!B2 | !tenuto!A4 !tenuto!A2 | z2 !tenuto!F2 !tenuto!F2 | %46
w: do- ve tu|va- i|spun- ta~un|
 !tenuto!A2 !tenuto!G2 !tenuto!F2 | !tenuto!A2 !tenuto!G2- !tenuto!G !tenuto!F | !tenuto!F4 z2 | %49
w: fio- re~o- ve|pas- sa'l...... * tuo|piè!|
 z6 | z6 | z6 | z6 | z6 | z6 | z6 | z6 | z2 !tenuto!F2 !tenuto!F2 | %58
w: ||||||||Io non|
 !tenuto!G2 !tenuto!G2 !tenuto!G2 | !tenuto!G2 !tenuto!F2 !tenuto!G2 | !tenuto!A4 !tenuto!A2 | %61
w: chie- do qual|pia- ga be-|a- ta|
 z2 !tenuto!A2 !tenuto!A2 | !tenuto!B2 !tenuto!B2 !tenuto!B2 | !tenuto!B2 !tenuto!A2 !tenuto!B2 | %64
w: fi- no~a|des- so sog-|gior- no ti|
 !tenuto!c6 | z2 !tenuto!c2 !tenuto!c2 | !tenuto!^c2 !tenuto!c2 !tenuto!c2 | %67
w: fu|non ti|chie- do se|
 !tenuto!^c2 !tenuto!^c2 !tenuto!c2 | !tenuto!e4 !tenuto!d2 | z2 !tenuto!=c2 !tenuto!B2 | %70
w: nin- fa se|fa- ta,|se~u- na|
 !tenuto!A2 !tenuto!c2 !tenuto!A2 | !tenuto!A2 !tenuto!G2 !tenuto!A2 | !tenuto!F4 z2 | %73
w: bion- da par-|ven- za sei|tu!|
 z2 !tenuto!A2 !tenuto!A2 | !tenuto!A2 !tenuto!=B2 !tenuto!c2 | !tenuto!d2 !tenuto!c2 !tenuto!=B2 | %76
w: Ma che|c'è ne'l tuo|sguar- do fa-|
 !tenuto!c4 !tenuto!c2 | z2 !tenuto!c2 !tenuto!c2 | !tenuto!c2 !tenuto!d2 !tenuto!e2 | %79
w: ta- le?|co- sa|ci~hai ne'l tuo|
 !tenuto!f2 !tenuto!e2 !tenuto!d2 | !tenuto!e6 | z2 !tenuto!e2 !tenuto!e2 | %82
w: ma- gi- co|dir?|se mi|
 !tenuto!f2 !tenuto!e2 !tenuto!d2 | !tenuto!f2 !tenuto!e2 !tenuto!d2 | !tenuto!f4 !tenuto!d2 | %85
w: guar- di,~u- n'eb-|brez- za m'as-|sa- le,|
 z2 !tenuto!d2 !tenuto!d2 | !tenuto!e2 !tenuto!d2 !tenuto!c2 | !tenuto!e2 !tenuto!d2 !tenuto!c2 | %88
w: se mi|par- li mi|sen- to mo-|
 !tenuto!c6 | z2 !tenuto!c2 !tenuto!c2 | !tenuto!d2 !tenuto!c2 !tenuto!B2 | %91
w: rir!|se mi|guar- di,~u- n'eb-|
 !tenuto!d2 !tenuto!c2 !tenuto!B2 | !tenuto!A4 !tenuto!A2 | z2 !tenuto!F2 !tenuto!F2 | %94
w: brez- za m'as-|sa- le,|se mi|
 !tenuto!A2 !tenuto!G2 !tenuto!F2 | !tenuto!A2 !tenuto!A2- !tenuto!A !tenuto!G | !tenuto!G4 z2 | %97
w: par- li mi|sen- to * mo-|rir!|
 z6 | z6 | z6 | z6 | z6 | z6 | z6 | z6 | z6 | z6 |] %107
w: ||||||||||
V:2
 z [FA]2 [FA]2 [FA] | z [FA]2 [FA]2 [FA] | z [_EB]2 [EB]2 [EB] | z [FA]2!>(! [FA]2!>)! [FA] | %4
 z [_EB]2 [EB]2 [EB] | z [_EF]2 [EF]2 [EF] |!>(! z [DF]2 [DF]2 [DF] | z [CE]2 [CE]2 [B,E]!>)! | %8
 z [_A,C]2 [A,C]2 [A,-C] | [A,C] [_A,C]2 [A,C]2 [A,C] | z [B,CE]2 [B,CE]2 [B,CE] | %11
 z [B,CE]2 [B,CE]2 [B,CF] | z [A,CF]2 [A,CF]2 [A,CF] | z [A,CF]2 [A,CF]2 [A,CF] | %14
 z [B,CE]2 [B,CE]2 [B,CE] | z [B,CE]2 [B,CE]2 [B,CE] | z [CFA]2 [CFA]2 [CFA] | %17
 z [CFA]2 [CFA]2 [CFA] | z [^CFA]2 [CFA]2 [CFA] | z [^CFA]2 [^B,FA]2 [CFA] | %20
 z [EG_B]2 [EGB]2 [DGB] | z [DF]2 [DF]2 [DF] | z [CF]2 [CF]2 [CF] | z [B,E]2 [B,E]2 [B,E] | %24
 z [A,C]2 [A,C]2 [A,C] | z [A,C]2 [A,C]2 [A,C] | z E2 E2 [EA] | z [E^G]2 [EG]2 [EG] | %28
 z [EA]2 [EA]2 [EA] | z [E_A]2 [EA]2 [EA] | z [EG]2 [EG]2 [EG] | z [FG]2 [FG]2 [FG] | %32
 z [EG]2 [EG]2 [EG] | z [EG]2 [EG]2 [EG] | z [Fc]2 [Fc]2 [Fc] | z [Fc]2 [Fc]2 [Fc] | %36
 z [Bd]2 [Bd]2 [FB] | z [FB]2 [FB]2 [FB] | z [EB]2 [EB]2 [EB] | z [EB]2 [EB]2 [EB] | %40
 z [CFA]2 [CFA]2 [CFA] | z [CFA]2 [_EF]2 [EF] | z [DF]2 [DF]2 [DF] | z [DF]2 [DF]2 [DF] | %44
 z [CF]2 [CF]2 [CF] | z [CF]2 [A,C]2 [A,C] | z [=B,D]2 [B,D]2 [B,D] | z [_B,-E] [B,E]4 | %48
 z [A,C]2!p! [A,C] z [FA] | z [FA]2 [FA]2 [FA] | z [EB]2 [EB]2 [EB] | z [FA]2 [FA]2 [FA] | %52
 z [EB]2 [EB]2 [EB] | z [_EF]2 [EF]2 [EF] | z [DF]2 [DF]2 [DF] | z [CE]2 [CE]2 [B,E] | %56
 z [A,C]2 [A,C]2 [A,C]- | [A,C]!pp! [A,C]2 [A,C]2 [A,C] | z [B,CE]2 [B,CE]2 [B,CE] | %59
 z [B,CE]2 [B,CE]2 [B,CE] | z [A,CF]2 [A,CF]2 [A,CF] | z [A,CF]2 [A,CF]2 [A,CF] | %62
 z [B,CE]2 [B,CE]2 [B,CE] | z [B,CE]2 [B,CE]2 [B,CE] | z [CFA]2 [CFA]2 [CFA] | %65
 z [CFA]2 [CFA]2 [CFA] | z [^CFA]2 [CFA]2 [CFA] | z [^CFA]2 [^B,FA]2 [CFA] | %68
 z [EG_B]2 [EGB]2 [DGB] | z [DF]2 [DF]2 [DF] | z [CF]2 [CFA]2 [CF] | z [B,E]2 [B,E]2 [B,E] | %72
 z [A,C]2 [A,C]2 [A,C] | z!p! [A,C]2 [A,C]2 [A,C] | z E2 E2 [EA] | z [E^G]2 [EG]2 [EG] | %76
 z [EA]2 [EA]2 [EA] | z [E_A]2 [EA]2 [EA] | z [EG]2 [EG]2 [EG] | z [FG]2 [FG]2 [FG] | %80
 z [EG]2 [EG]2 [EG] | z [EG]2 [EG]2 [EG] | z [Fc]2 [Fc]2 [Fc] | z [Fc]2 [Fc]2 [Fc] | %84
 z [Bd]2 [Bd]2 [FB] | z [FB]2 [FB]2 [FB] | z [EB]2 [EB]2 [EB] | z [EB]2 [EB]2 [EB] | %88
 z [CFA]2 [CFA]2 [CFA] | z [CFA]2 [_EF]2 [EF] | z [DF]2 [DF]2 [DF] | z [DF]2 [DF]2 [DF] | %92
 z [CF]2 [CF]2 [CF] | z [CF]2 [A,C]2 [A,C] | z [=B,D]2 [B,D]2 [B,D] | z [B,-E] [B,E]4 | %96
 z [A,C]2 [A,C] z [FA] |!<(! z [FA]2!<)!!>(! [FA]2 [FA] | z!>)! [EB]2 [EB]2 [EB] | %99
 z [FA]2!>(! [FA]2 [FA]!>)! | z [EB]2 [EB]2 [EB] | z [_EF]2 [EF]2 [EF] | z [DF]2 [DF]2 [DF] | %103
 z [C=F]2 [CE]2 [B,E] | z [A,C]2 [A,C]2 [A,-C] | [A,C] [A,C]2 [A,C]2 [A,-C] | [A,C]4 z2 |] %107
V:3
 z2 z2!<(! (!>!c2 | d4!<)!!>(! f2!>)! | e4)!<(! (!>!c2!<)! | d4 f2 | e6) | (!>!c6 | d2 c2 B2 | %7
 A4 G2 | F4) z2 | z2!pp! (F2 F2 | G4 G2 | G2 F2 G2 | A4) A2- | A2 (A2 A2 | B4 B2 | B2 A2 B2 | %16
 c6-) | c2 (c2 c2 | ^c4 c2 | ^c2 ^B2 c2 | e4) d2- | d2 (=c2 B2 | A2 c2 A2 | A2 G2 A2 | F4) z2 | %25
 z2!p! (A2 A2 | A2 =B2 c2 | d2 c2 =B2 | c4) c2- | c2 (c2 c2 | c2 d2 e2 | f2 e2 d2 | e4) e2- | %33
 e2 (e2 e2 | f2 e2 d2 | f2 e2 d2 | !>![Ff]4) [Dd]2- | [Dd]2!p! (d2 d2 | e2 d2 c2 | e2 d2 c2 | %40
 c6-) | c2 (c2 c2 | d2 c2 B2 | d2 c2 B2 | A4 A2-) | A2 (F2 F2 | A2 G2 F2 | A2 G2- GF | F4) (c2 | %49
 d4 f2 | e4) (c2 | d4 f2 | e6) | (!>!c6 | d2 c2 B2 | A4 G2 | F4) z2 | z2 (F2 F2 | G4 G2 | %59
 G2 F2 G2 | A4) A2- | A2 (A2 A2 | B4 B2 | B2 A2 B2 | c6-) | c2 (c2 c2 | ^c4 c2 | ^c2 ^B2 c2 | %68
 e4 d2-) | d2 (=c2 B2 | A2 c2 A2 | A2 G2 A2 | F4) z2 | z2 (A2 A2 | A2 =B2 c2 | d2 c2 =B2 | %76
 c4) c2- | c2 (c2 c2 | c2 d2 e2 | f2 e2 d2 | e4) e2- | e2 (e2 e2 | f2 e2 d2 | f2 e2 d2 | %84
 !>![Ff]4) [Dd]2- | [Dd]2!p! (d2 d2 | e2 d2 c2 | e2 d2 c2 | c6-) | c2 (c2 c2 | d2 c2 B2 | %91
 d2 c2 B2 | A4 A2-) | A2 (F2 F2 | A2 G2 A2 | A2 G2 GF | F4) (!>!c2 | d4 f2 | e4)!<(! (c2 | %99
 d4!<)! f2 | e6) | (!>!c6 | d2 c2 B2 | A4 G2 | F6-) | F6- | F4 z2 |] %107
V:4
 z2 C4 | z2 D4 | z2 C4 | z2 D4 | z2 C4 | z6 | z6 | z6 | z6 | z6 | z6 | z6 | z6 | z6 | z6 | z6 | %16
 z6 | z6 | z6 | z6 | z6 | z6 | z6 | z6 | z6 | z6 | z2 C4 | z2 D4 | z2 C4 | z2 C4 | z2 C4 | %31
 z2 =B,4 | z2 C4 | z2 C4 | z2 C4 | z2 C4 | z6 | z6 | z2 C4 | z2 C4 | z2 A,4- | A,2 z2 z2 | z2 B,4 | %43
 z2 G,4 | z2 A,4 | A,2 z2 z2 | z6 | z6 | z6 | z2 D4 | z2 C4 | z2 D4 | z2 C4 | z6 | z6 | z6 | z6 | %57
 z6 | z6 | z6 | z6 | z6 | z6 | z6 | z6 | z6 | z6 | z6 | z6 | z6 | z6 | z6 | z6 | z6 | z2 C4 | %75
 z2 D4 | z2 C4 | z2 C4 | z2 C4 | z2 =B,4 | z2 C4 | z2 C4 | z2 C4 | z2 C4 | z6 | z6 | z2 C4 | %87
 z2 C4 | z2 A,4- | A,2 z2 z2 | z2 B,4 | z2 G,4 | z2 A,4- | A,2 z2 z2 | z2 z2 z2 | z6 | z6 | z2 D4 | %98
 z2 C4 | z2 D4 | z2 C4 | z6 | z6 | z6 | z6 | z6 | z6 |] %107
V:5
 F,6 | F,6 | F,6 | F,6 | F,6 | (A,6 | A,4 G,2) | (C,6 | F,,6-) | F,,4 z2 | F,,6- | F,,2 z2 z2 | %12
 F,,6- | F,,2 z2 z2 | G,,6- | G,,2 z2 z2 | A,,6- | A,,2 z2 z2 | (A,,6 | A,6 | B,6) | (G,6 | C,6) | %23
 (C,,6 | F,,4) z2 | !>!F,6 | E,6 | E,6 | A,6 | _A,6 | G,6 | G,6 | C,6 | _B,6 | A,6 | A,6 | %36
 !>!G,6- | G,6 | C,6 | C,6 | A,,6- | A,,6 | B,,6 | G,,6 | C,6- | (C,6 | G,,6) | (C,6 | F,,4) z2 | %49
 F,6 | G,6 | F,6 | G,6 | (A,6 | B,4 G,2) | (C,6 | F,,6-) | F,,4 z2 | F,,6- | F,,2 z2 z2 | F,,6- | %61
 F,,2 z2 z2 | G,,6- | G,,2 z2 z2 | A,,6- | A,,2 z2 z2 | (A,,6 | A,6 | B,6) | (G,6 | C,6) | (C,,6 | %72
 F,,4) z2 | !>!F,6 | C,6 | C,6 | A,6 | _A,6 | G,6 | G,6 | C,6 | _B,6 | A,6 | A,6 | !>!G,6- | G,6 | %86
 C,6 | C,6 | A,,6- | A,,6 | B,,6 | G,,6 | C,6- | (C,6 | G,,6) | (C,6 | F,,4) z2 | F,6 | F,6 | F,6 | %100
 F,6 | (A,6 | B,4 G,2 | C,6) | F,,6- | (F,,6 | F,,,4) z2 |] %107

